svg/furkot/icomoon/location.svg

<svg viewBox="0 0 512 512" xmlns="http://www.w3.org/2000/svg"><path d="m256 0c-88.368 0-160 71.632-160 160 0 160 160 352 160 352s160-192 160-352c0-88.368-71.632-160-160-160zm0 256c-53.024 0-96-42.976-96-96s42.976-96 96-96 96 42.976 96 96-42.984 96-96 96z"/></svg>

<svg xmlns="http://www.w3.org/2000/svg" viewBox="0 0 512 512"><path d="M256 0C167.632 0 96 71.632 96 160 96 320 256 512 256 512S416 320 416 160C416 71.632 344.368 0 256 0ZM256 256C202.976 256 160 213.024 160 160S202.976 64 256 64 352 106.976 352 160 309.016 256 256 256Z"/></svg>
